X:593
T:Pastor que tas nel monte (CT 408)
R:Tonada
C:Tradicional Versin 6
S:Msica Tradicional Asturiana, (C) Tello & Tito. Asturies, 2001.
S:http://pagina.de/MusTradAst <telloytito@asturies.org>
N:Variante de CT 403, CT 404, CT 405, CT 406,  CT 407, dictada por Carlos Valds Fernndez, de treinta y nueve aos, de Tinu.
A:Asturies
O:Tinu
Z:Cancioneru de Torner 408
M:3/8
L:1/8
Q:1/8=112
K:Cm
G|:ccc|c2e|d3/2c/2 B-|B2c|dfd|
c2B|AG2-|GzG|BcB|A2G|FFF|
F2F|Bcc|B2A|GGG|[1 GzG:|[2 Gz2||
W:Pastor que ests en el monte,
W:pastor,
W:y duermes entre la rama:
W:si te casaras conmigo,
W:pastor,
W:durmieras en buena cama.
W:Y anda y anda!
W:
W:Soy nacidu en la cabaa,
W:s, s,
W:y pastora fue mio madre;
W:morrera yo en ellano,
W:s, s,
W:que me faltara el aire.
W:Y anda y anda!
W:
W:Pastor que ests en el monte
W:descalzu triando brees:
W:si te casaraas conmigo,
W:calzars bones madrees.
W:
W:Salto y brinco por el monte
W:descalzu y triando espinos,
W:meyor que en esos llugares
W:con madrees y escarpinos.
W:
W:Pastor que ests en el monte
W:comiendo pan de centeno:
W:si te casarras conmigo,
W:comieras del trigo bueno.
W:
W:Comiendo pan de centeno,
W:descalzu y durmiendo en rama,
W:tengo yo en estes altures
W:la tranquilid del alma.
W:
W:Yo subir a la montaa
W:y pastora me far
W:dormir en la to cabaa
W:y el rebau cudiar.
W:
